src/4-icons/up.svg

<svg width="260" height="260" viewBox="0 0 260 260" fill="none" xmlns="http://www.w3.org/2000/svg">
<path d="M129.998 201.74C126.132 201.74 122.998 198.606 122.998 194.74V82.2413L80.9478 124.292C78.2141 127.025 73.782 127.025 71.0483 124.292C68.3146 121.558 68.3146 117.126 71.0483 114.392L124.788 60.6519C126.188 59.2521 128.034 58.569 129.868 58.6029C131.703 58.569 133.548 59.2521 134.948 60.6519L188.688 114.392C191.422 117.126 191.422 121.558 188.688 124.292C185.954 127.025 181.522 127.025 178.788 124.292L136.998 82.5012V194.74C136.998 198.606 133.864 201.74 129.998 201.74Z" fill="black"/>
<path fill-rule="evenodd" clip-rule="evenodd" d="M0 130C0 201.797 58.203 260 130 260C201.797 260 260 201.797 260 130C260 58.203 201.797 0 130 0C58.203 0 0 58.203 0 130ZM14 130C14 194.065 65.935 246 130 246C194.065 246 246 194.065 246 130C246 65.935 194.065 14 130 14C65.935 14 14 65.935 14 130Z" fill="black"/>
</svg>

<svg width="260" height="260" viewBox="0 0 260 260" fill="none" xmlns="http://www.w3.org/2000/svg"><path d="M129.998 201.74a7 7 0 0 1-7-7V82.241l-42.05 42.051a7.001 7.001 0 0 1-9.9-9.9l53.74-53.74a6.981 6.981 0 0 1 5.08-2.05 6.98 6.98 0 0 1 5.08 2.05l53.74 53.74a7 7 0 1 1-9.9 9.9l-41.79-41.79V194.74a7 7 0 0 1-7 7Z" fill="#000"/><path fill-rule="evenodd" clip-rule="evenodd" d="M0 130c0 71.797 58.203 130 130 130s130-58.203 130-130S201.797 0 130 0 0 58.203 0 130Zm14 0c0 64.065 51.935 116 116 116s116-51.935 116-116S194.065 14 130 14 14 65.935 14 130Z" fill="#000"/></svg>
